X:7232
T:the Prince of Tunis
O:england
M:C
K:G
"Slow" D|\
G3A B>AB>d| e2A2 A3B| G3A B>AG>d| e3f g>ab>a|\
g2e2 e>gf>e| d<BA>B e3g|
d3B c<BA>G| E2G2 G3::\
d|\
g3a b<ag>f| e2fg {e}d2cB|
e3g d<BA>G| E2A2 A>cB>A|\
G3A B>AB>d| e3f {a}g2fe| d>edB c>BA>G| E2G2 G2:|


